outputs/icons/charts/chart_stacked_round.svg

<svg xmlns="http://www.w3.org/2000/svg" width="1200" height="1200" fill="none"><path fill="#000" d="M300 512.5c0-6.905 5.596-12.5 12.5-12.5h125c6.904 0 12.5 5.595 12.5 12.5v475c0 6.905-5.596 12.5-12.5 12.5h-125c-6.904 0-12.5-5.595-12.5-12.5zm0-187.5c0-41.421 33.579-75 75-75s75 33.579 75 75v112.5c0 6.904-5.596 12.5-12.5 12.5h-125c-6.904 0-12.5-5.596-12.5-12.5zm500 487.5c0-6.905 5.595-12.5 12.5-12.5h125c6.905 0 12.5 5.595 12.5 12.5v175c0 6.905-5.595 12.5-12.5 12.5h-125c-6.905 0-12.5-5.595-12.5-12.5zm0-87.5c0-41.42 33.58-75 75-75s75 33.58 75 75v13.89c0 6.135-4.975 11.11-11.11 11.11H811.11c-6.135 0-11.11-4.975-11.11-11.11zm-250-62.5c0-6.905 5.595-12.5 12.5-12.5h125c6.905 0 12.5 5.595 12.5 12.5v325c0 6.905-5.595 12.5-12.5 12.5h-125c-6.905 0-12.5-5.595-12.5-12.5zm0-137.5c0-41.422 33.58-75 75-75s75 33.578 75 75v62.5c0 6.905-5.595 12.5-12.5 12.5h-125c-6.905 0-12.5-5.595-12.5-12.5z"/></svg>

<svg width="1200" height="1200" viewBox="0 0 1200 1200" fill="none" xmlns="http://www.w3.org/2000/svg"><path d="M300 512.5C300 505.595 305.596 500 312.5 500H437.5C444.404 500 450 505.595 450 512.5V987.5C450 994.405 444.404 1000 437.5 1000H312.5C305.596 1000 300 994.405 300 987.5V512.5ZM300 325C300 283.579 333.579 250 375 250C416.422 250 450 283.579 450 325V437.5C450 444.404 444.404 450 437.5 450H312.5C305.596 450 300 444.404 300 437.5V325ZM800 812.5C800 805.595 805.595 800 812.5 800H937.5C944.405 800 950 805.595 950 812.5V987.5C950 994.405 944.405 1000 937.5 1000H812.5C805.595 1000 800 994.405 800 987.5V812.5ZM800 725C800 683.58 833.58 650 875 650C916.42 650 950 683.58 950 725V738.89C950 745.025 945.025 750 938.89 750H811.11C804.975 750 800 745.025 800 738.89V725ZM550 662.5C550 655.595 555.595 650 562.5 650H687.5C694.405 650 700 655.595 700 662.5V987.5C700 994.405 694.405 1000 687.5 1000H562.5C555.595 1000 550 994.405 550 987.5V662.5ZM550 525C550 483.578 583.58 450 625 450C666.42 450 700 483.578 700 525V587.5C700 594.405 694.405 600 687.5 600H562.5C555.595 600 550 594.405 550 587.5V525Z" fill="black"/></svg>
